X:1
T:Io mi son giovinetta
T:Io mi son giovinetta
T:Jean de Castro
T:Source : Chansons, madrigaux et motetz à 3 parties---Anvers---P.Phalèse---1582. Editor : André Vierendeels (11/02/16).
T:Notes : Original clefs : C1, C2, C3 Editorial accidentals above the staff Text by Giovanni Boccaccio (Decamerone)
T:©
T:©
T:©
T:©
T:©
T:©
T:©
T:©
C:Jean de Castro
Z:©
%%score [ 1 2 3 ]
L:1/8
Q:1/4=140
M:2/2
K:F
V:1 treble nm="Soprano 1" snm="S 1"
V:2 treble nm="Soprano 2" snm="S 2"
V:3 treble-8 nm="Tenor" snm="T"
V:1
 z8 | z8 | d8 | d4 d4 | f6 e2 | d4 d4 | c2 A2 c4 | d2 A2 A2 A2 | c3 c d2 d2 | c2 A2 B4 | A4 z4 | %11
w: ||Io|mi son|gio- vi-|net- ta'e|vo- lon- tie-|ri, io mi son|gio- vi- net- ta'e|vo- lon- tie-|ri,|
 z4 d4 | f2 d2 e3 f | g2 g2 f2 d2 | c2 d2 z4 | z4 z2 A2 | c2 G2 B3 c | d2 d2 c2 f2 | e4 d4 | %19
w: m'al-|le- gro'e can- to'en|la sta- gion no-|vel- la,|m'al-|le- gro'e can- to'en|la sta- gion no-|vel- la,|
 z4 A4 | d4 c4 | A4 z2 B2 | c2 c2 A2 d2 | c2 A2 B2 G2 | B2 A2 z2 G2 | A8 | =B8 || z4 G4 | %28
w: mer-|ze d'a-|mor', mer-|ze d'a- mor' e|de dol- ci pen-|sie- ri, pen-|sie-|ri.|Io|
 G2 A2 B2 c2 | d2 e2 f4- | f2 f2 e2 c2 | e4 d4 | G4 G2 A2 | B2 c2 d2 e2 | f4 z2 f2 | e2 c2 e4 | %36
w: vo _ _ _|_ _ _|* per ver- di|pra- ti,|io vo _|_ _ _ _|* per|ver- di pra-|
 d4 z2 d2 | f2 f2 e2 c2 | d2 e2 f4 | e4 d4- | d2 cB c4 | d8 | z8 | z4 d4 | g2 f2 e4 | d4 z2 A2 | %46
w: ti, io|vo per ver- di|pra- ti ri-|guar- dan-||do,||i|bian- chi fio-|ri, i|
 A2 A2 d4 | c4 z2 d2 | c2 d2 B4 |"^-natural" A4 f4 | e2 f2 d4- | d4 c4 | d8 | ^c4 z2 A2 | %54
w: bian- chi fio-|ri, i|bian- chi fio-|ri, i|bian- chi fio-|* ri'e|gal-|li, le|
 d2 c2 B2 A2 | G4 F4 | G2 A2 B4 | A8 | z2 A2 d2 c2 | B2 G2 A2 A2 | d2 c2 d4 | c2 c2 d2 f2 | e4 d4 | %63
w: ro- se'in su le|spi- ne'in|bian- chi gi-|gli,|le ro- se'in|su le spi- ne'in|bian- chi gi-|gli, e tut- ti|quan- ti,|
 z4 z2 c2 | d2 f2 e4 | d2 A2 d3 e | f6 e2- | e2 d2 c4 | B4 d4 | c2 A2 B2 G2 | A4 d4 | c2 d2 B2 c2 | %72
w: e|tut- ti quan-|ti gli vo _|_ so-|* mi- glian-|do, al|vi- so di co-|lui, al|vi- so di co-|
 A2 f2 f3 f | e2 f2 d4 | c2 B2 A4 | G4 d4 | f2 d2 c4 | d2 d2 f3 f | e2 f2 d4 | c2 B2 A4 | %80
w: lui ch'a- man- do|mi, mi pre-|se, mi pre-|se, e|ter- ra sem-|pre ch'a- man- do|mi, mi pre-|se, mi pre-|
 =B4 z2 A2 | c4 d4- |"^#" d4 c4 | d8- | d8- | d8 |] %86
w: se, e|ter- ra|_ sem-|pre.|_||
V:2
 G8 | G4 G4 | B6 A2 | G4 G4 | F2 D2 A4 | ^F2 A2 A2 B2 | A2 D2 A2 G2 | ^F4 F4 | G2 A2 z2 D2 | %9
w: Io|mi son|gio- vi-|net- ta'e|vo- lon- tie-|ri, io mi son|gio- vi- net- ta'e|vo- lon-|tie- ri, e|
 E2 F2 G4 | ^F4 z2 A2 | c2 A2 B3 B | A2 B2 c2 c2 | B4 A4 | z2 A2 c2 A2 | B3 B A2 F2 | G4 z2 G2 | %17
w: vo- lon- tie-|ri, m'al-|le- gro'e can- to'en|la sta- gion no-|vel- la,|en la sta-|gion no- vel- *|la, en|
 B2 A2 A2 d2 | c4 A4 | z4 ^F4 | B4 G4 | ^F4 z2 G2 | G2 G2 F4 | z2 F2 D2 E2 | F4 G4- |"^#" G4 F4 | %26
w: la sta- gion no-|vel- la,|mer-|ze d'a-|mor', mer-|ze d'a- mor'|e de dol-|ci pen-|* sie-|
 G8 || C4 C2 D2 | E2 F2 G2 A2 | B6 B2 | A2 F2 A4 | G2 G2 G2 F2 | E4 D4 | z4 B4 | A6 A2 | %35
w: ri.|Io vo _|_ _ _ _|* per|ver- di pra-|ti, per ver- di|pra- ti,|per|ver- di|
 G2 A2 z2 c2 | B2 B2 A2 G2 | z2 F2 G2 A2 | D2 A4 F2 | G8 | E8 | D4 A4 | B2 A2 G4 | F4 z2 F2 | %44
w: pra- ti, per|ver- di pra- ti,|per ver- di|pra- ti ri-|guar-|dan-|do, i|bian- chi fio-|ri, i|
 E2 D2 C4 | D4 F4 | E2 F2 D4 | A4 B4 | A2 B2 G4 | ^F4 z2 A2 | c2 A2 B4- | B4 A4- | A4 G4 | A4 z4 | %54
w: bian- chi fio-|ri, i|bian- chi fio-|ri, i|bian- chi fio-|ri, i|bian- chi fio-|* ri'e|_ gal-|li,|
 D4 G2 F2 | E2 C2 D2 D2 | E2 F2 G4 | F6 E2 | F2 E2 D2 A2 | D4 F4 | B2 A4 G2 | A4 z2 F2 | G2 A2 B4 | %63
w: le ro- se'in|su le spi- ne'in|bian- chi gi-|gli, le|ro- se'in su le|spi- ne!in|bian- chi gi-|gli, e|tut- ti quan-|
 A4 z2 G2 | A2 B2 c4 | A2 ^F2 G4 | z2 F2 A2 G2- | G2 B2 A4 | B4 B4 | A2 F2 G2 E2 | D4 B4 | %71
w: ti, e|tut- ti quan-|ti gli vo,|gli vo so-|* mi- glian-|do, al|vi- so di co-|lui, al|
 A2 F2 G2 G2 | F2 D2 A3 A | c2 B2 B3 B | A2 G2 ^F4 | G2 B4 A2 | F2 G2 E4 | z2 D2 A3 A | %78
w: vi- so di co-|lui ch'a- man- do|mi, ch'a- man- do|mi, mi pre-|se, e ter-|ra sem- pre|ch'a- man- do|
 c2 B2 B3 B | A2 G2 ^F4 | G4 z2 ^F2 | G4 G4 | E8 | ^F4 z2 G2 | F2 A2 B4 | A8 |] %86
w: mi, ch'a- man- do|mi, mi pre-|se, e|ter- ra|sem-|pre, e|ter- ra sem-|pre.|
V:3
 z8 | z8 | z8 | z8 | d8 | d4 d4 | f6 e2 | d4 d4 | c2 A2 B4 | A4 z4 |"^-natural" d4 f2 d2 | %11
w: ||||Io|mi son|gio- vi-|net- ta'e|vo- lon- tie-|ri,|m'al- le- gro'e|
 e2 f2 g2 g2 | d2 g2 c4 | G4 z2 d2 | f2 d2 e2 f2 | g2 g2 d2 d2 | c4 G2 g2 | g2 d2 f2 d2 | a4 d4 | %19
w: can- to'en la sta-|gion no- vel-|la, m'al-|le- gro'e can- to'en|la sta- gion no-|vel- la, en|la sta- gion no-|vel- la,|
 z4 d4 | B4 c4 | d4 z2 G2 | c2 c2 d4 | z2 d2 B2 c2 |"^b" d4 e4 | d8 | G8 || z8 | z8 | z8 | z8 | %31
w: mer-|ze d'a-|mor', mer-|ze d'a- mor'|e de dol-|ci pen-|sie-|ri.|||||
 z8 | z4 G4 | G2 A2 B2 c2 | d3 e f4 | z2 f2 e2 c2 | g4 d2 g2 | f2 d2 c2 A2 | B2 A2 d4 | c4 G4 | %40
w: |Io|vo _ _ _|_ _ _|per ver- di|pra- ti, io|vo per ver- di|pra- ti ri-|guar- dan-|
 A8 | z4 d4 | g2 f2 e4 | d8 | z8 | z4 d4 | c2 d2 B4 | A4 z4 | z8 | z4 d4 | c2 d2 G4- | G4 A4 | B8 | %53
w: do,|i|bian- chi fio-|ri,||i|bian- chi fio-|ri,||i|bian- chi fio-|* ri'e|gal-|
 A8 | z8 | z8 | z8 | z4 A4 | d2 c2 B2 A2 | G4 F4 | G2 A2 B4 | A4 z4 | z4 z2 d2 | d2 f2 e4 | %64
w: li,||||le|ro- se'in su le|spi- ne'in|bian- chi gi-|gli,|e|tut- ti quan-|
 d4 z2 A2 | d4 z2 G2 | d3 e f2 c2- | c2 B2 f4 | B8 | z8 | z4 B4 |"^b" f2 d2 e2 c2 | d8 | %73
w: ti gli|vo, gli|vo _ _ so-|* mi- glian-|do,||al|vi- so di co-|lui|
 z2 B2 B3 B | f2 g2 d4 | G2 g4 d2- | d2 G2 A4 | d8 | z2 B2 B3 B | f2 g2 d4 | G4 d4 | c4 G4 | A8 | %83
w: ch'a- man- do|mi, mi pre-|se, e ter-|* ra sem-|pre,|ch'a- man- do|mi, mi pre-|se, e|ter- ra|sem-|
 d4 z2 G2 | B2 ^F2 G4 | d8 |] %86
w: pre, e|ter- ra sem-|pre.|

